X:2573
T:Cantar de Ronda (CT 478) (Arrg.)
R:Ronda
C:Tradicional
S:Música Tradicional Asturiana, (C) Tello & Tito. Asturies, 2001.
S:http://pagina.de/MusTradAst <telloytito@asturies.org>
N:Canción de Ronda, dictada por Iluminada y Aurelia Martínez Viescas, de treinta y treinta y cinco años, respectivamente, de Llanuces, ayuntamiento de Quirós.
O:Llanuces (Quirós)
A:Asturies
G:Arrg.
Z:Cancioneru de Torner 478
M:2/4
L:1/8
Q:1/4=82
W:Cuando bajes a la iglesia,
W:mira la tierra sagrada,
W:que a tierra se ha de volver
W:la hermosura de tu cara.
K:C
G/G/
|"C"cc de|"F"f2 ed/c/|"G"Bc "Dm"de|"F/C"d/e/4d/4"F"c-cf|
"C"e2 d2|"C"c2 GA|"Gm"(_BA/B/4A/4 G2-)|"Gm"G2 zd/d/|
"Gm"de "Gsus4"gf|"Am"e(d/e/4d/4 "C"c2-)|"C"c2 z||


